assets/warning-icon.svg

<svg width="24" height="24" fill="none" xmlns="http://www.w3.org/2000/svg"><path d="M12 23c6.05 0 11-4.95 11-11S18.05 1 12 1 1 5.95 1 12s4.95 11 11 11Zm.33-16.181c.22-.198.484-.319.77-.319.297 0 .55.121.781.319.209.231.319.495.319.781 0 .297-.11.55-.319.781a1.127 1.127 0 0 1-.781.319c-.286 0-.55-.11-.77-.319-.209-.231-.33-.484-.33-.781 0-.286.121-.55.33-.781Zm-2.75 5.148s2.387-1.892 3.256-1.969c.814-.066.649.869.572 1.353l-.011.066c-.154.583-.341 1.287-.528 1.958-.418 1.529-.825 3.025-.726 3.3.11.374.792-.099 1.287-.429.066-.044.121-.088.176-.121 0 0 .088-.088.176.033a.61.61 0 0 0 .066.088c.099.154.154.209.022.297l-.044.022c-.242.165-1.276.891-1.694 1.155-.451.297-2.178 1.287-1.914-.638.231-1.353.539-2.519.781-3.432.451-1.65.649-2.398-.363-1.749-.407.242-.649.396-.792.495-.121.088-.132.088-.209-.055l-.033-.066-.055-.088c-.077-.11-.077-.121.033-.22Z" fill="#7EA373"/></svg>

<svg width="24" height="24" viewBox="0 0 24 24" fill="none" xmlns="http://www.w3.org/2000/svg">
<path d="M12 23C18.05 23 23 18.05 23 12C23 5.95 18.05 1 12 1C5.95 1 1 5.95 1 12C1 18.05 5.95 23 12 23ZM12.33 6.819C12.55 6.621 12.814 6.5 13.1 6.5C13.397 6.5 13.65 6.621 13.881 6.819C14.09 7.05 14.2 7.314 14.2 7.6C14.2 7.897 14.09 8.15 13.881 8.381C13.65 8.59 13.397 8.7 13.1 8.7C12.814 8.7 12.55 8.59 12.33 8.381C12.121 8.15 12 7.897 12 7.6C12 7.314 12.121 7.05 12.33 6.819ZM9.58 11.967C9.58 11.967 11.967 10.075 12.836 9.998C13.65 9.932 13.485 10.867 13.408 11.351L13.397 11.417C13.243 12 13.056 12.704 12.869 13.375C12.451 14.904 12.044 16.4 12.143 16.675C12.253 17.049 12.935 16.576 13.43 16.246C13.496 16.202 13.551 16.158 13.606 16.125C13.606 16.125 13.694 16.037 13.782 16.158C13.804 16.191 13.826 16.224 13.848 16.246C13.947 16.4 14.002 16.455 13.87 16.543L13.826 16.565C13.584 16.73 12.55 17.456 12.132 17.72C11.681 18.017 9.954 19.007 10.218 17.082C10.449 15.729 10.757 14.563 10.999 13.65C11.45 12 11.648 11.252 10.636 11.901C10.229 12.143 9.987 12.297 9.844 12.396C9.723 12.484 9.712 12.484 9.635 12.341L9.602 12.275L9.547 12.187C9.47 12.077 9.47 12.066 9.58 11.967Z" fill="#7EA373"/>
</svg>
